X:20
T:Miss Rose Blackhall's Strathspey
C:"By Mr. Marshall"
S:Petrie's Second Collection of Strathspey Reels and Country Dances &c.
Z:Steve Wyrick , 6/5/04
N:Petrie's Second Collection, page 7
L:1/8
M:C
R:Strathspey
K:A
E|A,>B,C<D E>FE<C|A,>CE>C       E<AA<c   |A,>B,C<D E>FE<C|B,c d/c/B/A/ G<BB<c|
  A,>B,C<D E>FE<C|A,>CE<C       E<AA<c   |e>cA<E   F<Af>e|d>cB>A       GBB  ||
c|A<Ac>A   e>Ac>A|E>F E/D/C/B,/ A,<(AA>c)|A<Ac>A   e>Af>e|d>cB>A       Gc|
  A<Ac>A   e>Ac>A|E>F E/D/C/B,/ A,<AA>c  |a>fe<c   e>cA<E|FD E/D/C/B,/ A,AA |]
